Suru++-Ubuntu/apps/symbolic/scribus-symbolic.svg

<svg version="1.1" viewBox="0 0 16 16" xmlns="http://www.w3.org/2000/svg">
 <defs>
  <style type="text/css">.ColorScheme-Text { color:#808080; }</style>
 </defs>
 <path class="ColorScheme-Text" d="m9.4487382 0.49999966-8.9438562 8.9004333v3.591403c1.3435313 0.02374 3.554109 0 3.554109 0l8.943857-8.9394704zm-0.898291 2.6935522 1.7575268 1.7566644-3.5565501 3.591403-1.7965826-1.7981413zm-4.4914562 4.4502166 1.7965825 1.7566645-0.8982912 0.897851-1.7575265-1.7566647zm9.09764 1.6005166c-0.24496 0.00125-0.912976 0.056838-1.952807 0.7026657-0.324947 0.2023682-0.566158 0.4327832-0.937347 0.7051052-0.197468 0.144906-0.9067278 0.617097-1.1716848 0.78074-0.7736239 0.478437-1.0510787 0.599607-1.7184701 0.936887-0.6461448 0.326037-1.3229096 0.622718-1.7965825 0.858815-1.9896762 0.9931-5.0797397 1.014961-5.0797396 1.014961v1.249184s3.1213083 0.03997 5.3921887-1.093036c0.301201-0.149902 0.835489-0.39724 1.3279089-0.624592 0 0 1.3985226-0.740453 1.4060216-0.741703 0.24496-0.136161 0.451489-0.239843 0.820179-0.468444 0.284953-0.176134 0.9685918-0.613661 1.2497958-0.819777 0.412433-0.303551 0.678327-0.527467 0.898292-0.663628 0.481171-0.377253 1.024833-0.601794 1.562245-0.585555-0.04249 0 0.162786 0.01218 0.351506 0.117111 0.188719 0.104932 0.388061 0.292309 0.546786 0.468444 0.3062 0.414729 0.44524 0.731084 0.507729 1.28822-0.04499 1.632684-1.599739 1.880022-2.812042 1.873776v1.249184c2.473347 0.111177 3.74939-1.042132 3.74939-3.161997-5e-3 -0.359764-0.0628-0.655508-0.195281-1.053998-0.132478-0.39849-0.332446-0.843823-0.624898-1.171109-0.451177-0.5284051-0.678327-0.7601286-1.52319-0.8588142z" style="fill:currentColor"/>
</svg>

<svg xmlns="http://www.w3.org/2000/svg" version="1.1" viewBox="0 0 16 16">
 <defs>
  <style id="current-color-scheme" type="text/css">
   .ColorScheme-Text { color:#808080; }
  </style>
 </defs>
 <path style="fill:currentColor;" class="ColorScheme-Text" d="M 9.4487382,0.49999966 0.504882,9.400433 v 3.591403 c 1.3435313,0.02374 3.554109,0 3.554109,0 L 13.002848,4.0523656 Z M 8.5504472,3.1935519 10.307974,4.9502163 6.7514239,8.5416193 4.9548413,6.743478 Z M 4.058991,7.6437685 5.8555735,9.400433 4.9572823,10.298284 3.1997558,8.5416193 Z m 9.09764,1.6005166 c -0.24496,0.00125 -0.912976,0.056838 -1.952807,0.7026657 -0.324947,0.2023682 -0.566158,0.4327832 -0.937347,0.7051052 -0.197468,0.144906 -0.9067278,0.617097 -1.1716848,0.78074 C 8.3211683,11.911233 8.0437135,12.032403 7.3763221,12.369683 6.7301773,12.69572 6.0534125,12.992401 5.5797396,13.228498 3.5900634,14.221598 0.4999999,14.243459 0.5,14.243459 v 1.249184 c 0,0 3.1213083,0.03997 5.3921887,-1.093036 0.301201,-0.149902 0.835489,-0.39724 1.3279089,-0.624592 0,0 1.3985226,-0.740453 1.4060216,-0.741703 0.24496,-0.136161 0.451489,-0.239843 0.820179,-0.468444 0.284953,-0.176134 0.9685918,-0.613661 1.2497958,-0.819777 0.412433,-0.303551 0.678327,-0.527467 0.898292,-0.663628 0.481171,-0.377253 1.024833,-0.601794 1.562245,-0.585555 -0.04249,0 0.162786,0.01218 0.351506,0.117111 0.188719,0.104932 0.388061,0.292309 0.546786,0.468444 0.3062,0.414729 0.44524,0.731084 0.507729,1.28822 -0.04499,1.632684 -1.599739,1.880022 -2.812042,1.873776 v 1.249184 C 14.223957,15.60382 15.5,14.450511 15.5,12.330646 15.495,11.970882 15.4372,11.675138 15.304719,11.276648 15.172241,10.878158 14.972273,10.432825 14.679821,10.105539 14.228644,9.5771339 14.001494,9.3454104 13.156631,9.2467248 Z"/>
</svg>
